X:1
T:Goldberg Variations : Variation III
T:BWV 988
T:J. S. Bach
%%score { ( 1 3 ) | 2 }
L:1/8
M:12/8
K:G
V:1 treble nm="Harp"
V:3 treble 
V:2 bass 
V:1
 B3- B/c/d/c/d/e/ A3- A/B/c/B/c/d/ | G3 g3- ga/g/f/g/ a z2 | z d/c/B/A/ Bc/B/A/B/ Ged cfa | %3
 B2 g g2 f z2 b a2 d- | d/e/d/c/B eBd ^cde- ecA | z2 d eBd ^cde- e=cA | DE/F/G/A/ Bd^c d3- dc z | %7
 d3- d/A/G/F/G/E/ F6 | B3- B/c/d/c/d/e/ A3- A/B/c/B/c/d/ | G3 g3- ga/g/f/g/ a z2 | %10
 z d/c/B/A/ Bc/B/A/B/ Ged cfa | B2 g g2 f z2 b a2 d- | d/e/d/c/B eBd ^cde- ecA | %13
 z2 d eBd ^cde- e=cA | DE/F/G/A/ Bd^c d3- dc z | d3- d/A/G/F/G/E/ F6 | %16
 z3 a3- a/b/c'/a/b/c'/ b/a/g/f/e/^d/ | efg- gfe ^d3- d2 z | efg- gfe d3- d2 z | %19
 EF/G/A/B/ cE^D E3 z3 | e3- e/f/g/e/f/g/ c/d/e/c/d/e/ A/B/c/A/B/c/ | B/c/d/B/c/d/ G3- G g2- gfa- | %22
 ag=f e/d/c/e/d/c/ B2 b a2 c' | b2 d' ga^f g6 | z3 a3- a/b/c'/a/b/c'/ b/a/g/f/e/^d/ | %25
 efg- gfe ^d3- d2 z | efg- gfe d3- d2 z | EF/G/A/B/ cE^D E3 z3 | %28
 e3- e/f/g/e/f/g/ c/d/e/c/d/e/ A/B/c/A/B/c/ | B/c/d/B/c/d/ G3- G g2- gfa- | %30
 ag=f e/d/c/e/d/c/ B2 b a2 c' | b2 d' ga^f g6 |] %32
V:2
 G,,B,,D, G,B,E, F,,A,,D, F,A,D, | E,,G,,B,, E,B,,^C, D,,F,,A,, D,F,A,, | %2
 B,,/A,,/B,,/C,/D,- D,/G,,/A,,/B,,/C,/D,/ E,/D,/C,/B,,/C,/E,/ F,,/A,,/G,,/F,,/E,,/D,,/ | %3
 G,,/F,,/G,,/A,,/B,,/C,/ D,/E,/A,,/B,,/C,/A,,/ B,,/A,,/G,,/F,,/G,,- G,,/F,,/E,,/D,,/E,,/F,,/ | %4
 G,,/F,,/G,,/A,,/G,,/F,,/ E,,/F,,/G,,/E,,/F,,/G,,/ A,,/G,,/A,,/B,,/A,,/G,,/ F,,/F,/G,/F,/E,/F,/ | %5
 B,,/A,,/B,,/C,/D,/B,,/ ^C,/D,/E,/D,/C,/B,,/ A,,/E,/D,/C,/D,/B,,/ C,/A,,/B,,/C,/D,/E,/ | %6
 F,/B,,/^C,/D,/E,/F,/ G,/F,/E,/D,/E,/^A,,/ B,,/C,/D,/C,/B,,/=A,,/ G,,/F,,/G,,/B,,/A,,/G,,/ | %7
 F,,/A,,/G,,/F,,/E,,/D,,/ G,,E,,A,, D,,/F,,/A,,/D,/A,,/F,,/ D,,3 | %8
 G,,B,,D, G,B,E, F,,A,,D, F,A,D, | E,,G,,B,, E,B,,^C, D,,F,,A,, D,F,A,, | %10
 B,,/A,,/B,,/C,/D,- D,/G,,/A,,/B,,/C,/D,/ E,/D,/C,/B,,/C,/E,/ F,,/A,,/G,,/F,,/E,,/D,,/ | %11
 G,,/F,,/G,,/A,,/B,,/C,/ D,/E,/A,,/B,,/C,/A,,/ B,,/A,,/G,,/F,,/G,,- G,,/F,,/E,,/D,,/E,,/F,,/ | %12
 G,,/F,,/G,,/A,,/G,,/F,,/ E,,/F,,/G,,/E,,/F,,/G,,/ A,,/G,,/A,,/B,,/A,,/G,,/ F,,/F,/G,/F,/E,/F,/ | %13
 B,,/A,,/B,,/C,/D,/B,,/ ^C,/D,/E,/D,/C,/B,,/ A,,/E,/D,/C,/D,/B,,/ C,/A,,/B,,/C,/D,/E,/ | %14
 F,/B,,/^C,/D,/E,/F,/ G,/F,/E,/D,/E,/^A,,/ B,,/C,/D,/C,/B,,/=A,,/ G,,/F,,/G,,/B,,/A,,/G,,/ | %15
 F,,/A,,/G,,/F,,/E,,/D,,/ G,,E,,A,, D,,/F,,/A,,/D,/A,,/F,,/ D,,3 | %16
 D,F,A, DC/B,/A,/G,/ F,A,D, G,A,B, | C/D/C/B,/A,/G,/ F,/E,/F,/G,/A,/F,/ B,F,G, A,/C/B,/A,/G,/F,/ | %18
 G,/A,/G,/F,/E,/D,/ C,/B,,/A,,/B,,/C,/A,,/ B,,F,B,- B,G,E, | %19
 C/D/C/B,/A,/G,/ F,/E,/F,/B,/A,/B,/ E,G,B, EE,D, | C,CB, A,3- A,CA, F,D,D | %21
 G,/A,/G,/=F,/E,/D,/ C,E,C, A,,/B,,/C,/A,,/B,,/C,/ D,D,,^F, | %22
 G,/A,/B,/G,/A,/B,/ CEA, D/C/B,/D/C/B,/ C/B,/A,/G,/F,/A,/ | %23
 G,/F,/E,/D,/C,/B,,/ C,A,,D, G,,/B,,/D,/G,/D,/B,,/ G,,3 | D,F,A, DC/B,/A,/G,/ F,A,D, G,A,B, | %25
 C/D/C/B,/A,/G,/ F,/E,/F,/G,/A,/F,/ B,F,G, A,/C/B,/A,/G,/F,/ | %26
 G,/A,/G,/F,/E,/D,/ C,/B,,/A,,/B,,/C,/A,,/ B,,F,B,- B,G,E, | %27
 C/D/C/B,/A,/G,/ F,/E,/F,/B,/A,/B,/ E,G,B, EE,D, | C,CB, A,3- A,CA, F,D,D | %29
 G,/A,/G,/=F,/E,/D,/ C,E,C, A,,/B,,/C,/A,,/B,,/C,/ D,D,,^F, | %30
 G,/A,/B,/G,/A,/B,/ CEA, D/C/B,/D/C/B,/ C/B,/A,/G,/F,/A,/ | %31
 G,/F,/E,/D,/C,/B,,/ C,A,,D, G,,/B,,/D,/G,/D,/B,,/ G,,3 |] %32
V:3
 x12 | B3- B/c/d/c/d/e/ A3- A/B/c/B/c/d/ | G3 g3 ga/g/f/g/ a z2 | z d/c/B/A/ Bc/B/A/B/ Ged cfa | %4
 B2 g g2 f z2 b a2 d- | d/e/d/c/B G3- GFG EA/G/F/E/ | z z d G3- GFG EA/G/F/E/ | DE/F/G/A/ Bd^c d6 | %8
 x12 | B3- B/c/d/c/d/e/ A3- A/B/c/B/c/d/ | G3 g3 ga/g/f/g/ a z2 | z d/c/B/A/ Bc/B/A/B/ Ged cfa | %12
 B2 g g2 f z2 b a2 d- | d/e/d/c/B G3- GFG EA/G/F/E/ | z z d G3- GFG EA/G/F/E/ | DE/F/G/A/ Bd^c d6 | %16
 x12 | z3 a3- a/b/c'/a/b/c'/ b/a/g/f/e/=d/ | z3 A3- AB/A/G/F/ G/A/B/G/A/B/ | %19
 z3 A3- AB/A/G/F/ G/A/B/G/A/B/ | EF/G/A/B/ cE^D E3 z3 | %21
 e3- e/f/g/e/f/g/ c/d/e/c/d/e/ A/B/c/A/B/c/ | B/c/d/B/c/d/ G3- G g2- g^fa- | ag=f e/d/c/e/d/c/ B6 | %24
 x12 | z3 a3- a/b/c'/a/b/c'/ b/a/g/f/e/=d/ | z3 A3- AB/A/G/F/ G/A/B/G/A/B/ | %27
 z3 A3- AB/A/G/F/ G/A/B/G/A/B/ | EF/G/A/B/ cE^D E3 z3 | %29
 e3- e/f/g/e/f/g/ c/d/e/c/d/e/ A/B/c/A/B/c/ | B/c/d/B/c/d/ G3- G g2- g^fa- | %31
 ag=f e/d/c/e/d/c/ B6 |] %32

